icons/iotex/io1d7zv3k2t2ty3236mup52fv6pvnqu9rwpdkcde6.svg

<svg height="100" viewBox="0 0 100 100" width="100" xmlns="http://www.w3.org/2000/svg" xmlns:xlink="http://www.w3.org/1999/xlink"><linearGradient id="a" gradientUnits="objectBoundingBox" x2="1" y1=".5" y2=".5"><stop offset="0" stop-color="#fad002"/><stop offset="1" stop-color="#06bfc1"/></linearGradient><path d="m67.684 80h-55.371a12.269 12.269 0 0 0 -3.613-8.7 12.215 12.215 0 0 0 -8.7-3.6v-55.4a12.323 12.323 0 0 0 12.313-12.3h55.371a12.271 12.271 0 0 0 3.616 8.7 12.228 12.228 0 0 0 8.7 3.6v55.4a12.325 12.325 0 0 0 -12.316 12.3zm-50.528-73.843a14.076 14.076 0 0 1 -11 11v45.684a14.078 14.078 0 0 1 11 11h45.675a14.111 14.111 0 0 1 11.013-11v-45.683a14.051 14.051 0 0 1 -11-11z" fill="#00b4a0" transform="translate(10 10)"/><path d="m0 0h100v100h-100z" fill="none"/><path d="m57.79 69h-46.576a14.305 14.305 0 0 0 -3.923-7.289 14.31 14.31 0 0 0 -7.291-3.922v-46.576a14.308 14.308 0 0 0 7.29-3.922 14.308 14.308 0 0 0 3.924-7.291h46.575a14.307 14.307 0 0 0 3.923 7.289 14.31 14.31 0 0 0 7.288 3.925v46.575a14.391 14.391 0 0 0 -11.21 11.211z" fill="none" transform="translate(15 16)"/><path d="m28.915 31.531a34.665 34.665 0 0 1 -16.434-4.145 33.857 33.857 0 0 1 -12.362-11.427l-.106-.167.106-.168a33.847 33.847 0 0 1 12.354-11.453 34.622 34.622 0 0 1 32.928 0 33.848 33.848 0 0 1 12.356 11.453l.107.168-.107.167a33.854 33.854 0 0 1 -12.365 11.426 34.658 34.658 0 0 1 -16.432 4.146zm-11.546-20.123a12.078 12.078 0 0 0 2.749 13.392 12.568 12.568 0 0 0 8.827 3.582 12.712 12.712 0 0 0 4.838-.953 12.255 12.255 0 0 0 7.707-11.377 12.1 12.1 0 0 0 -3.6-8.552 12.582 12.582 0 0 0 -8.639-3.676l-.314-.024a12.5 12.5 0 0 0 -11.568 7.608zm7.2 5.293a6.23 6.23 0 1 1 6.23 6.23 6.23 6.23 0 0 1 -6.231-6.231z" fill="url(#a)" transform="translate(20.987 33.994)"/></svg>

<svg xmlns="http://www.w3.org/2000/svg" xmlns:xlink="http://www.w3.org/1999/xlink" width="100" height="100" viewBox="0 0 100 100">
  <defs>
    <linearGradient id="linear-gradient" y1="0.5" x2="1" y2="0.5" gradientUnits="objectBoundingBox">
      <stop offset="0" stop-color="#fad002"/>
      <stop offset="1" stop-color="#06bfc1"/>
    </linearGradient>
  </defs>
  <g id="icon_nft_privacymatter" transform="translate(9.781 9.897)">
    <path id="减去_64" data-name="减去 64" d="M67.684,80H12.313A12.269,12.269,0,0,0,8.7,71.3,12.215,12.215,0,0,0,0,67.7V12.3A12.323,12.323,0,0,0,12.313,0H67.684A12.271,12.271,0,0,0,71.3,8.7,12.228,12.228,0,0,0,80,12.3V67.7a12.325,12.325,0,0,0-12.316,12.3ZM17.156,6.157a14.076,14.076,0,0,1-11,11V62.841a14.078,14.078,0,0,1,11,11H62.831a14.111,14.111,0,0,1,11.013-11V17.158a14.051,14.051,0,0,1-11-11Z" transform="translate(0.219 0.103)" fill="#00b4a0"/>
    <rect id="矩形_1523" data-name="矩形 1523" width="100" height="100" transform="translate(-9.781 -9.897)" fill="none"/>
    <g id="icon_nft_privacymatter-2" data-name="icon_nft_privacymatter" transform="translate(-41.781 -413.891)">
      <path id="减去_15" data-name="减去 15" d="M57.79,69H11.214a14.305,14.305,0,0,0-3.923-7.289A14.31,14.31,0,0,0,0,57.789V11.213a14.308,14.308,0,0,0,7.29-3.922A14.308,14.308,0,0,0,11.214,0H57.789a14.307,14.307,0,0,0,3.923,7.289A14.31,14.31,0,0,0,69,11.214V57.789A14.391,14.391,0,0,0,57.79,69Z" transform="translate(47 419.994)" fill="none"/>
      <g id="icon_nft_privacymatter-3" data-name="icon_nft_privacymatter" transform="translate(41 414)">
        <path id="联合_152" data-name="联合 152" d="M28.915,31.531a34.665,34.665,0,0,1-16.434-4.145A33.857,33.857,0,0,1,.119,15.959l-.106-.167.106-.168A33.847,33.847,0,0,1,12.473,4.171a34.622,34.622,0,0,1,32.928,0A33.848,33.848,0,0,1,57.757,15.624l.107.168-.107.167A33.854,33.854,0,0,1,45.392,27.385,34.658,34.658,0,0,1,28.96,31.531ZM17.369,11.408A12.078,12.078,0,0,0,20.118,24.8a12.568,12.568,0,0,0,8.827,3.582,12.712,12.712,0,0,0,4.838-.953A12.255,12.255,0,0,0,41.49,16.052a12.1,12.1,0,0,0-3.6-8.552,12.582,12.582,0,0,0-8.639-3.676L28.937,3.8A12.5,12.5,0,0,0,17.369,11.408Zm7.2,5.293a6.23,6.23,0,1,1,6.23,6.23A6.23,6.23,0,0,1,24.568,16.7Z" transform="translate(11.987 23.988)" fill="url(#linear-gradient)"/>
      </g>
    </g>
  </g>
</svg>
